images/50571427.svg

<?xml version="1.0" encoding="UTF-8"?>
<svg xmlns="http://www.w3.org/2000/svg" xmlns:xlink="http://www.w3.org/1999/xlink" width="300pt" height="300pt" viewBox="0 0 300 300" version="1.1">
<defs>
<g>
<symbol overflow="visible" id="glyph0-0">
<path style="stroke:none;" d="M 0.59375 2.125 L 0.59375 -8.46875 L 6.59375 -8.46875 L 6.59375 2.125 Z M 1.265625 1.453125 L 5.9375 1.453125 L 5.9375 -7.78125 L 1.265625 -7.78125 Z M 1.265625 1.453125 "/>
</symbol>
<symbol overflow="visible" id="glyph0-1">
<path style="stroke:none;" d="M 4.734375 -7.953125 C 3.867188 -7.953125 3.179688 -7.628906 2.671875 -6.984375 C 2.171875 -6.347656 1.921875 -5.472656 1.921875 -4.359375 C 1.921875 -3.265625 2.171875 -2.394531 2.671875 -1.75 C 3.179688 -1.113281 3.867188 -0.796875 4.734375 -0.796875 C 5.585938 -0.796875 6.265625 -1.113281 6.765625 -1.75 C 7.273438 -2.394531 7.53125 -3.265625 7.53125 -4.359375 C 7.53125 -5.472656 7.273438 -6.347656 6.765625 -6.984375 C 6.265625 -7.628906 5.585938 -7.953125 4.734375 -7.953125 Z M 4.734375 -8.90625 C 5.953125 -8.90625 6.925781 -8.492188 7.65625 -7.671875 C 8.394531 -6.847656 8.765625 -5.742188 8.765625 -4.359375 C 8.765625 -2.984375 8.394531 -1.882812 7.65625 -1.0625 C 6.925781 -0.238281 5.953125 0.171875 4.734375 0.171875 C 3.503906 0.171875 2.519531 -0.238281 1.78125 -1.0625 C 1.039062 -1.882812 0.671875 -2.984375 0.671875 -4.359375 C 0.671875 -5.742188 1.039062 -6.847656 1.78125 -7.671875 C 2.519531 -8.492188 3.503906 -8.90625 4.734375 -8.90625 Z M 4.734375 -8.90625 "/>
</symbol>
<symbol overflow="visible" id="glyph0-2">
<path style="stroke:none;" d="M 1.171875 -8.75 L 2.765625 -8.75 L 6.65625 -1.4375 L 6.65625 -8.75 L 7.796875 -8.75 L 7.796875 0 L 6.203125 0 L 2.328125 -7.3125 L 2.328125 0 L 1.171875 0 Z M 1.171875 -8.75 "/>
</symbol>
<symbol overflow="visible" id="glyph0-3">
<path style="stroke:none;" d="M 1.171875 -8.75 L 2.359375 -8.75 L 2.359375 -5.15625 L 6.65625 -5.15625 L 6.65625 -8.75 L 7.84375 -8.75 L 7.84375 0 L 6.65625 0 L 6.65625 -4.171875 L 2.359375 -4.171875 L 2.359375 0 L 1.171875 0 Z M 1.171875 -8.75 "/>
</symbol>
<symbol overflow="visible" id="glyph1-0">
<path style="stroke:none;" d="M 0.5 1.765625 L 0.5 -7.046875 L 5.5 -7.046875 L 5.5 1.765625 Z M 1.0625 1.21875 L 4.9375 1.21875 L 4.9375 -6.484375 L 1.0625 -6.484375 Z M 1.0625 1.21875 "/>
</symbol>
<symbol overflow="visible" id="glyph1-1">
<path style="stroke:none;" d="M 1.921875 -0.828125 L 5.359375 -0.828125 L 5.359375 0 L 0.734375 0 L 0.734375 -0.828125 C 1.109375 -1.210938 1.617188 -1.734375 2.265625 -2.390625 C 2.910156 -3.046875 3.316406 -3.46875 3.484375 -3.65625 C 3.796875 -4.007812 4.015625 -4.304688 4.140625 -4.546875 C 4.265625 -4.796875 4.328125 -5.039062 4.328125 -5.28125 C 4.328125 -5.664062 4.191406 -5.976562 3.921875 -6.21875 C 3.648438 -6.46875 3.296875 -6.59375 2.859375 -6.59375 C 2.546875 -6.59375 2.21875 -6.535156 1.875 -6.421875 C 1.539062 -6.316406 1.175781 -6.15625 0.78125 -5.9375 L 0.78125 -6.9375 C 1.175781 -7.09375 1.546875 -7.210938 1.890625 -7.296875 C 2.234375 -7.378906 2.550781 -7.421875 2.84375 -7.421875 C 3.59375 -7.421875 4.191406 -7.234375 4.640625 -6.859375 C 5.097656 -6.484375 5.328125 -5.976562 5.328125 -5.34375 C 5.328125 -5.039062 5.269531 -4.753906 5.15625 -4.484375 C 5.039062 -4.222656 4.835938 -3.910156 4.546875 -3.546875 C 4.460938 -3.453125 4.203125 -3.175781 3.765625 -2.71875 C 3.328125 -2.269531 2.710938 -1.640625 1.921875 -0.828125 Z M 1.921875 -0.828125 "/>
</symbol>
<symbol overflow="visible" id="glyph1-2">
<path style="stroke:none;" d="M 4.59375 -6.265625 L 4.59375 -3.546875 L 7.3125 -3.546875 L 7.3125 -2.71875 L 4.59375 -2.71875 L 4.59375 0 L 3.78125 0 L 3.78125 -2.71875 L 1.0625 -2.71875 L 1.0625 -3.546875 L 3.78125 -3.546875 L 3.78125 -6.265625 Z M 4.59375 -6.265625 "/>
</symbol>
</g>
</defs>
<g id="surface18153">
<rect x="0" y="0" width="300" height="300" style="fill:rgb(100%,100%,100%);fill-opacity:1;stroke:none;"/>
<path style="fill:none;stroke-width:1.2;stroke-linecap:butt;stroke-linejoin:miter;stroke:rgb(100%,0%,0%);stroke-opacity:1;stroke-miterlimit:10;" d="M 264.75 177.804688 L 263.539062 163.128906 "/>
<path style="fill:none;stroke-width:1.2;stroke-linecap:butt;stroke-linejoin:miter;stroke:rgb(0%,0%,0%);stroke-opacity:1;stroke-miterlimit:10;" d="M 263.539062 163.128906 L 262.332031 148.453125 "/>
<path style="fill:none;stroke-width:1.2;stroke-linecap:butt;stroke-linejoin:miter;stroke:rgb(0%,0%,0%);stroke-opacity:1;stroke-miterlimit:10;" d="M 237.582031 189.175781 L 251.164062 183.492188 "/>
<path style="fill:none;stroke-width:1.2;stroke-linecap:butt;stroke-linejoin:miter;stroke:rgb(100%,0%,0%);stroke-opacity:1;stroke-miterlimit:10;" d="M 251.164062 183.492188 L 264.75 177.804688 "/>
<path style=" stroke:none;fill-rule:nonzero;fill:rgb(100%,100%,100%);fill-opacity:1;" d="M 259.75 170.804688 L 269.75 170.804688 L 269.75 184.804688 L 259.75 184.804688 Z M 259.75 170.804688 "/>
<g style="fill:rgb(100%,0%,0%);fill-opacity:1;">
  <use xlink:href="#glyph0-1" x="259.75" y="181.943359"/>
</g>
<path style="fill:none;stroke-width:1.2;stroke-linecap:butt;stroke-linejoin:miter;stroke:rgb(0%,0%,0%);stroke-opacity:1;stroke-miterlimit:10;" d="M 262.332031 148.453125 L 233.667969 141.679688 "/>
<path style="fill:none;stroke-width:1.2;stroke-linecap:butt;stroke-linejoin:miter;stroke:rgb(0%,0%,0%);stroke-opacity:1;stroke-miterlimit:10;" d="M 233.667969 141.679688 L 218.371094 166.851562 "/>
<path style="fill:none;stroke-width:1.2;stroke-linecap:butt;stroke-linejoin:miter;stroke:rgb(0%,0%,0%);stroke-opacity:1;stroke-miterlimit:10;" d="M 218.371094 166.851562 L 189.429688 172.324219 "/>
<path style="fill:none;stroke-width:1.2;stroke-linecap:butt;stroke-linejoin:miter;stroke:rgb(0%,0%,0%);stroke-opacity:1;stroke-miterlimit:10;" d="M 216.765625 174.207031 L 193.613281 178.585938 "/>
<path style="fill:none;stroke-width:1.2;stroke-linecap:butt;stroke-linejoin:miter;stroke:rgb(0%,0%,0%);stroke-opacity:1;stroke-miterlimit:10;" d="M 237.582031 189.175781 L 218.371094 166.851562 "/>
<path style="fill:none;stroke-width:1.2;stroke-linecap:butt;stroke-linejoin:miter;stroke:rgb(0%,0%,0%);stroke-opacity:1;stroke-miterlimit:10;" d="M 189.429688 172.324219 L 179.703125 200.125 "/>
<path style="fill:none;stroke-width:1.2;stroke-linecap:butt;stroke-linejoin:miter;stroke:rgb(0%,0%,0%);stroke-opacity:1;stroke-miterlimit:10;" d="M 179.703125 200.125 L 198.914062 222.449219 "/>
<path style="fill:none;stroke-width:1.2;stroke-linecap:butt;stroke-linejoin:miter;stroke:rgb(0%,0%,0%);stroke-opacity:1;stroke-miterlimit:10;" d="M 186.875 197.835938 L 202.242188 215.699219 "/>
<path style="fill:none;stroke-width:1.2;stroke-linecap:butt;stroke-linejoin:miter;stroke:rgb(0%,0%,0%);stroke-opacity:1;stroke-miterlimit:10;" d="M 179.703125 200.125 L 150.761719 205.597656 "/>
<path style="fill:none;stroke-width:1.2;stroke-linecap:butt;stroke-linejoin:miter;stroke:rgb(0%,0%,0%);stroke-opacity:1;stroke-miterlimit:10;" d="M 198.914062 222.449219 L 227.851562 216.976562 "/>
<path style="fill:none;stroke-width:1.2;stroke-linecap:butt;stroke-linejoin:miter;stroke:rgb(0%,0%,0%);stroke-opacity:1;stroke-miterlimit:10;" d="M 227.851562 216.976562 L 237.582031 189.175781 "/>
<path style="fill:none;stroke-width:1.2;stroke-linecap:butt;stroke-linejoin:miter;stroke:rgb(0%,0%,0%);stroke-opacity:1;stroke-miterlimit:10;" d="M 222.285156 211.90625 L 230.066406 189.667969 "/>
<path style="fill:none;stroke-width:1.2;stroke-linecap:butt;stroke-linejoin:miter;stroke:rgb(0%,0%,0%);stroke-opacity:1;stroke-miterlimit:10;" d="M 147.492188 204.453125 L 142.625 218.355469 "/>
<path style="fill:none;stroke-width:1.2;stroke-linecap:butt;stroke-linejoin:miter;stroke:rgb(100%,0%,0%);stroke-opacity:1;stroke-miterlimit:10;" d="M 142.625 218.355469 L 137.761719 232.253906 "/>
<path style="fill:none;stroke-width:1.2;stroke-linecap:butt;stroke-linejoin:miter;stroke:rgb(0%,0%,0%);stroke-opacity:1;stroke-miterlimit:10;" d="M 154.03125 206.742188 L 149.167969 220.644531 "/>
<path style="fill:none;stroke-width:1.2;stroke-linecap:butt;stroke-linejoin:miter;stroke:rgb(100%,0%,0%);stroke-opacity:1;stroke-miterlimit:10;" d="M 149.167969 220.644531 L 144.304688 234.542969 "/>
<path style="fill:none;stroke-width:1.2;stroke-linecap:butt;stroke-linejoin:miter;stroke:rgb(0%,0%,0%);stroke-opacity:1;stroke-miterlimit:10;" d="M 150.761719 205.597656 L 141.15625 194.4375 "/>
<path style="fill:none;stroke-width:1.2;stroke-linecap:butt;stroke-linejoin:miter;stroke:rgb(0%,0%,100%);stroke-opacity:1;stroke-miterlimit:10;" d="M 141.15625 194.4375 L 131.550781 183.273438 "/>
<path style=" stroke:none;fill-rule:nonzero;fill:rgb(100%,100%,100%);fill-opacity:1;" d="M 131.03125 226.398438 L 141.03125 226.398438 L 141.03125 240.398438 L 131.03125 240.398438 Z M 131.03125 226.398438 "/>
<g style="fill:rgb(100%,0%,0%);fill-opacity:1;">
  <use xlink:href="#glyph0-1" x="131.03125" y="237.537109"/>
</g>
<path style="fill:none;stroke-width:1.2;stroke-linecap:butt;stroke-linejoin:miter;stroke:rgb(0%,0%,100%);stroke-opacity:1;stroke-miterlimit:10;" d="M 131.550781 183.273438 L 117.082031 186.011719 "/>
<path style="fill:none;stroke-width:1.2;stroke-linecap:butt;stroke-linejoin:miter;stroke:rgb(0%,0%,0%);stroke-opacity:1;stroke-miterlimit:10;" d="M 117.082031 186.011719 L 102.609375 188.75 "/>
<path style="fill:none;stroke-width:1.2;stroke-linecap:butt;stroke-linejoin:miter;stroke:rgb(0%,0%,100%);stroke-opacity:1;stroke-miterlimit:10;" d="M 131.550781 183.273438 L 136.414062 169.375 "/>
<path style="fill:none;stroke-width:1.2;stroke-linecap:butt;stroke-linejoin:miter;stroke:rgb(0%,0%,0%);stroke-opacity:1;stroke-miterlimit:10;" d="M 136.414062 169.375 L 141.28125 155.472656 "/>
<path style=" stroke:none;fill-rule:nonzero;fill:rgb(100%,100%,100%);fill-opacity:1;" d="M 127.550781 176.273438 L 136.550781 176.273438 L 136.550781 190.273438 L 127.550781 190.273438 Z M 127.550781 176.273438 "/>
<g style="fill:rgb(0%,0%,100%);fill-opacity:1;">
  <use xlink:href="#glyph0-2" x="127.550781" y="187.412109"/>
</g>
<path style="fill:none;stroke-width:1.2;stroke-linecap:butt;stroke-linejoin:miter;stroke:rgb(0%,0%,0%);stroke-opacity:1;stroke-miterlimit:10;" d="M 102.609375 188.75 L 83.402344 166.421875 "/>
<path style="fill:none;stroke-width:1.2;stroke-linecap:butt;stroke-linejoin:miter;stroke:rgb(0%,0%,0%);stroke-opacity:1;stroke-miterlimit:10;" d="M 83.402344 166.421875 L 93.128906 138.625 "/>
<path style="fill:none;stroke-width:1.2;stroke-linecap:butt;stroke-linejoin:miter;stroke:rgb(0%,0%,0%);stroke-opacity:1;stroke-miterlimit:10;" d="M 54.460938 171.898438 L 83.402344 166.421875 "/>
<path style="fill:none;stroke-width:1.2;stroke-linecap:butt;stroke-linejoin:miter;stroke:rgb(0%,0%,0%);stroke-opacity:1;stroke-miterlimit:10;" d="M 93.128906 138.625 L 73.917969 116.296875 "/>
<path style="fill:none;stroke-width:1.2;stroke-linecap:butt;stroke-linejoin:miter;stroke:rgb(0%,0%,0%);stroke-opacity:1;stroke-miterlimit:10;" d="M 73.917969 116.296875 L 59.449219 119.035156 "/>
<path style="fill:none;stroke-width:1.2;stroke-linecap:butt;stroke-linejoin:miter;stroke:rgb(0%,0%,100%);stroke-opacity:1;stroke-miterlimit:10;" d="M 59.449219 119.035156 L 44.980469 121.773438 "/>
<path style="fill:none;stroke-width:1.2;stroke-linecap:butt;stroke-linejoin:miter;stroke:rgb(0%,0%,100%);stroke-opacity:1;stroke-miterlimit:10;" d="M 44.980469 121.773438 L 40.113281 135.671875 "/>
<path style="fill:none;stroke-width:1.2;stroke-linecap:butt;stroke-linejoin:miter;stroke:rgb(0%,0%,0%);stroke-opacity:1;stroke-miterlimit:10;" d="M 40.113281 135.671875 L 35.25 149.570312 "/>
<path style=" stroke:none;fill-rule:nonzero;fill:rgb(100%,100%,100%);fill-opacity:1;" d="M 28.980469 110.773438 L 61.980469 110.773438 L 61.980469 132.773438 L 28.980469 132.773438 Z M 28.980469 110.773438 "/>
<g style="fill:rgb(0%,0%,100%);fill-opacity:1;">
  <use xlink:href="#glyph0-2" x="28.980469" y="124.938477"/>
  <use xlink:href="#glyph0-3" x="37.957031" y="124.938477"/>
</g>
<g style="fill:rgb(0%,0%,100%);fill-opacity:1;">
  <use xlink:href="#glyph1-1" x="46.980469" y="129.821289"/>
</g>
<g style="fill:rgb(0%,0%,100%);fill-opacity:1;">
  <use xlink:href="#glyph1-2" x="53.342773" y="120.055664"/>
</g>
<path style="fill:none;stroke-width:1.2;stroke-linecap:butt;stroke-linejoin:miter;stroke:rgb(0%,0%,0%);stroke-opacity:1;stroke-miterlimit:10;" d="M 35.25 149.570312 L 54.460938 171.898438 "/>
<path style="fill:none;stroke-width:1.2;stroke-linecap:butt;stroke-linejoin:miter;stroke:rgb(0%,0%,0%);stroke-opacity:1;stroke-miterlimit:10;" d="M 141.28125 155.472656 L 155.75 152.738281 "/>
<path style="fill:none;stroke-width:1.2;stroke-linecap:butt;stroke-linejoin:miter;stroke:rgb(0%,0%,100%);stroke-opacity:1;stroke-miterlimit:10;" d="M 155.75 152.738281 L 170.21875 150 "/>
<path style="fill:none;stroke-width:1.2;stroke-linecap:butt;stroke-linejoin:miter;stroke:rgb(0%,0%,0%);stroke-opacity:1;stroke-miterlimit:10;" d="M 142.886719 148.117188 L 154.460938 145.929688 "/>
<path style="fill:none;stroke-width:1.2;stroke-linecap:butt;stroke-linejoin:miter;stroke:rgb(0%,0%,100%);stroke-opacity:1;stroke-miterlimit:10;" d="M 154.460938 145.929688 L 166.039062 143.738281 "/>
<path style="fill:none;stroke-width:1.2;stroke-linecap:butt;stroke-linejoin:miter;stroke:rgb(0%,0%,0%);stroke-opacity:1;stroke-miterlimit:10;" d="M 122.070312 133.148438 L 141.28125 155.472656 "/>
<path style="fill:none;stroke-width:1.2;stroke-linecap:butt;stroke-linejoin:miter;stroke:rgb(0%,0%,100%);stroke-opacity:1;stroke-miterlimit:10;" d="M 170.21875 150 L 175.085938 136.101562 "/>
<path style="fill:none;stroke-width:1.2;stroke-linecap:butt;stroke-linejoin:miter;stroke:rgb(0%,0%,0%);stroke-opacity:1;stroke-miterlimit:10;" d="M 175.085938 136.101562 L 179.949219 122.199219 "/>
<path style=" stroke:none;fill-rule:nonzero;fill:rgb(100%,100%,100%);fill-opacity:1;" d="M 166.21875 143 L 175.21875 143 L 175.21875 157 L 166.21875 157 Z M 166.21875 143 "/>
<g style="fill:rgb(0%,0%,100%);fill-opacity:1;">
  <use xlink:href="#glyph0-2" x="166.21875" y="154.138672"/>
</g>
<path style="fill:none;stroke-width:1.2;stroke-linecap:butt;stroke-linejoin:miter;stroke:rgb(0%,0%,0%);stroke-opacity:1;stroke-miterlimit:10;" d="M 179.949219 122.199219 L 170.34375 111.039062 "/>
<path style="fill:none;stroke-width:1.2;stroke-linecap:butt;stroke-linejoin:miter;stroke:rgb(0%,0%,100%);stroke-opacity:1;stroke-miterlimit:10;" d="M 170.34375 111.039062 L 160.738281 99.875 "/>
<path style="fill:none;stroke-width:1.2;stroke-linecap:butt;stroke-linejoin:miter;stroke:rgb(0%,0%,0%);stroke-opacity:1;stroke-miterlimit:10;" d="M 172.773438 124.488281 L 165.089844 115.558594 "/>
<path style="fill:none;stroke-width:1.2;stroke-linecap:butt;stroke-linejoin:miter;stroke:rgb(0%,0%,100%);stroke-opacity:1;stroke-miterlimit:10;" d="M 165.089844 115.558594 L 157.40625 106.628906 "/>
<path style="fill:none;stroke-width:1.2;stroke-linecap:butt;stroke-linejoin:miter;stroke:rgb(0%,0%,0%);stroke-opacity:1;stroke-miterlimit:10;" d="M 179.949219 122.199219 L 194.417969 119.464844 "/>
<path style="fill:none;stroke-width:1.2;stroke-linecap:butt;stroke-linejoin:miter;stroke:rgb(0%,0%,100%);stroke-opacity:1;stroke-miterlimit:10;" d="M 194.417969 119.464844 L 208.886719 116.726562 "/>
<path style="fill:none;stroke-width:1.2;stroke-linecap:butt;stroke-linejoin:miter;stroke:rgb(0%,0%,100%);stroke-opacity:1;stroke-miterlimit:10;" d="M 160.738281 99.875 L 146.269531 102.613281 "/>
<path style="fill:none;stroke-width:1.2;stroke-linecap:butt;stroke-linejoin:miter;stroke:rgb(0%,0%,0%);stroke-opacity:1;stroke-miterlimit:10;" d="M 146.269531 102.613281 L 131.796875 105.347656 "/>
<path style=" stroke:none;fill-rule:nonzero;fill:rgb(100%,100%,100%);fill-opacity:1;" d="M 156.738281 92.875 L 165.738281 92.875 L 165.738281 106.875 L 156.738281 106.875 Z M 156.738281 92.875 "/>
<g style="fill:rgb(0%,0%,100%);fill-opacity:1;">
  <use xlink:href="#glyph0-2" x="156.738281" y="104.013672"/>
</g>
<path style="fill:none;stroke-width:1.2;stroke-linecap:butt;stroke-linejoin:miter;stroke:rgb(0%,0%,0%);stroke-opacity:1;stroke-miterlimit:10;" d="M 131.796875 105.347656 L 122.070312 133.148438 "/>
<path style="fill:none;stroke-width:1.2;stroke-linecap:butt;stroke-linejoin:miter;stroke:rgb(0%,0%,0%);stroke-opacity:1;stroke-miterlimit:10;" d="M 137.367188 110.417969 L 129.582031 132.65625 "/>
<path style="fill:none;stroke-width:1.2;stroke-linecap:butt;stroke-linejoin:miter;stroke:rgb(0%,0%,100%);stroke-opacity:1;stroke-miterlimit:10;" d="M 208.886719 116.726562 L 213.753906 102.824219 "/>
<path style="fill:none;stroke-width:1.2;stroke-linecap:butt;stroke-linejoin:miter;stroke:rgb(0%,0%,0%);stroke-opacity:1;stroke-miterlimit:10;" d="M 213.753906 102.824219 L 218.617188 88.925781 "/>
<path style=" stroke:none;fill-rule:nonzero;fill:rgb(100%,100%,100%);fill-opacity:1;" d="M 199.886719 109.726562 L 217.886719 109.726562 L 217.886719 123.726562 L 199.886719 123.726562 Z M 199.886719 109.726562 "/>
<g style="fill:rgb(0%,0%,100%);fill-opacity:1;">
  <use xlink:href="#glyph0-2" x="199.886719" y="120.865234"/>
  <use xlink:href="#glyph0-3" x="208.863281" y="120.865234"/>
</g>
<path style="fill:none;stroke-width:1.2;stroke-linecap:butt;stroke-linejoin:miter;stroke:rgb(0%,0%,0%);stroke-opacity:1;stroke-miterlimit:10;" d="M 218.617188 88.925781 L 247.558594 83.453125 "/>
<path style="fill:none;stroke-width:1.2;stroke-linecap:butt;stroke-linejoin:miter;stroke:rgb(0%,0%,0%);stroke-opacity:1;stroke-miterlimit:10;" d="M 218.617188 88.925781 L 199.40625 66.601562 "/>
</g>
</svg>

<svg xmlns="http://www.w3.org/2000/svg" xmlns:xlink="http://www.w3.org/1999/xlink" width="300pt" height="300pt" viewBox="0 0 300 300"><defs><symbol overflow="visible"><path d="M.594 2.125V-8.47h6V2.126zm.672-.672h4.671V-7.78h-4.67zm0 0"/></symbol><symbol overflow="visible" id="a"><path d="M4.734-7.953c-.867 0-1.554.324-2.062.97-.5.635-.75 1.51-.75 2.624 0 1.094.25 1.965.75 2.61.508.637 1.195.953 2.062.953.852 0 1.532-.316 2.032-.953.507-.645.765-1.516.765-2.61 0-1.113-.257-1.988-.764-2.624-.5-.645-1.18-.97-2.032-.97zm0-.953c1.22 0 2.192.414 2.922 1.234.74.824 1.11 1.93 1.11 3.313 0 1.376-.37 2.477-1.11 3.298C6.926-.24 5.953.17 4.734.17c-1.23 0-2.214-.41-2.953-1.234C1.04-1.882.673-2.984.673-4.36c0-1.382.367-2.488 1.11-3.312.738-.82 1.722-1.234 2.952-1.234zm0 0"/></symbol><symbol overflow="visible" id="b"><path d="M1.172-8.75h1.594l3.89 7.313V-8.75h1.14V0H6.204L2.328-7.313V0H1.172zm0 0"/></symbol><symbol overflow="visible" id="c"><path d="M1.172-8.75H2.36v3.594h4.296V-8.75h1.188V0H6.656v-4.172H2.36V0H1.17zm0 0"/></symbol><symbol overflow="visible"><path d="M.5 1.766v-8.813h5v8.813zm.563-.547h3.875v-7.704H1.063zm0 0"/></symbol><symbol overflow="visible" id="d"><path d="M1.922-.828H5.36V0H.733v-.828c.375-.383.883-.906 1.532-1.563.644-.657 1.05-1.08 1.218-1.266.313-.352.532-.65.657-.89.126-.25.188-.493.188-.735 0-.384-.137-.697-.406-.94-.274-.25-.625-.374-1.063-.374-.313 0-.64.06-.985.172-.336.106-.7.266-1.094.484v-1c.396-.156.767-.273 1.11-.36.344-.08.66-.124.954-.124.75 0 1.347.188 1.797.563.458.376.688.883.688 1.516 0 .305-.058.59-.172.86-.117.26-.32.574-.61.937-.085.094-.343.37-.78.828-.438.45-1.055 1.08-1.844 1.892zm0 0"/></symbol><symbol overflow="visible" id="e"><path d="M4.594-6.266v2.72h2.718v.827H4.595V0H3.78v-2.72H1.064v-.827H3.78v-2.72zm0 0"/></symbol></defs><g><path fill="#fff" d="M0 0h300v300H0z"/><path d="M264.75 177.805l-1.21-14.676" stroke-width="1.2" stroke="#f00" stroke-miterlimit="10" fill="none"/><path d="M263.54 163.13l-1.208-14.677M237.582 189.176l13.582-5.684" stroke-width="1.2" stroke="#000" stroke-miterlimit="10" fill="none"/><path d="M251.164 183.492l13.586-5.687" stroke-width="1.2" stroke="#f00" stroke-miterlimit="10" fill="none"/><path d="M259.75 170.805h10v14h-10zm0 0" fill="#fff"/><use xlink:href="#a" x="259.75" y="181.943" fill="#f00"/><path d="M262.332 148.453l-28.664-6.773M233.668 141.68l-15.297 25.172M218.37 166.852l-28.94 5.472M216.766 174.207l-23.153 4.38M237.582 189.176l-19.21-22.324M189.43 172.324l-9.727 27.8M179.703 200.125l19.21 22.324M186.875 197.836l15.367 17.863M179.703 200.125l-28.94 5.473M198.914 222.45l28.938-5.473M227.852 216.977l9.73-27.8M222.285 211.906l7.78-22.238M147.492 204.453l-4.867 13.902" stroke-width="1.2" stroke="#000" stroke-miterlimit="10" fill="none"/><path d="M142.625 218.355l-4.863 13.9" stroke-width="1.2" stroke="#f00" stroke-miterlimit="10" fill="none"/><path d="M154.03 206.742l-4.862 13.903" stroke-width="1.2" stroke="#000" stroke-miterlimit="10" fill="none"/><path d="M149.168 220.645l-4.863 13.898" stroke-width="1.2" stroke="#f00" stroke-miterlimit="10" fill="none"/><path d="M150.762 205.598l-9.606-11.16" stroke-width="1.2" stroke="#000" stroke-miterlimit="10" fill="none"/><path d="M141.156 194.438l-9.605-11.165" stroke-width="1.2" stroke="#00f" stroke-miterlimit="10" fill="none"/><path d="M131.03 226.398h10v14h-10zm0 0" fill="#fff"/><use xlink:href="#a" x="131.031" y="237.537" fill="#f00"/><path d="M131.55 183.273l-14.468 2.74" stroke-width="1.2" stroke="#00f" stroke-miterlimit="10" fill="none"/><path d="M117.082 186.012l-14.473 2.738" stroke-width="1.2" stroke="#000" stroke-miterlimit="10" fill="none"/><path d="M131.55 183.273l4.864-13.898" stroke-width="1.2" stroke="#00f" stroke-miterlimit="10" fill="none"/><path d="M136.414 169.375l4.867-13.902" stroke-width="1.2" stroke="#000" stroke-miterlimit="10" fill="none"/><path d="M127.55 176.273h9v14h-9zm0 0" fill="#fff"/><use xlink:href="#b" x="127.551" y="187.412" fill="#00f"/><path d="M102.61 188.75L83.4 166.422M83.402 166.422l9.727-27.797M54.46 171.898l28.942-5.476M93.13 138.625l-19.212-22.328M73.918 116.297l-14.47 2.738" stroke-width="1.2" stroke="#000" stroke-miterlimit="10" fill="none"/><path d="M59.45 119.035l-14.47 2.738M44.98 121.773l-4.867 13.9" stroke-width="1.2" stroke="#00f" stroke-miterlimit="10" fill="none"/><path d="M40.113 135.672L35.25 149.57" stroke-width="1.2" stroke="#000" stroke-miterlimit="10" fill="none"/><path d="M28.98 110.773h33v22h-33zm0 0" fill="#fff"/><g fill="#00f"><use xlink:href="#b" x="28.98" y="124.938"/><use xlink:href="#c" x="37.957" y="124.938"/></g><use xlink:href="#d" x="46.98" y="129.821" fill="#00f"/><use xlink:href="#e" x="53.343" y="120.056" fill="#00f"/><path d="M35.25 149.57l19.21 22.328M141.28 155.473l14.47-2.735" stroke-width="1.2" stroke="#000" stroke-miterlimit="10" fill="none"/><path d="M155.75 152.738L170.22 150" stroke-width="1.2" stroke="#00f" stroke-miterlimit="10" fill="none"/><path d="M142.887 148.117l11.574-2.187" stroke-width="1.2" stroke="#000" stroke-miterlimit="10" fill="none"/><path d="M154.46 145.93l11.58-2.192" stroke-width="1.2" stroke="#00f" stroke-miterlimit="10" fill="none"/><path d="M122.07 133.148l19.21 22.325" stroke-width="1.2" stroke="#000" stroke-miterlimit="10" fill="none"/><path d="M170.22 150l4.866-13.898" stroke-width="1.2" stroke="#00f" stroke-miterlimit="10" fill="none"/><path d="M175.086 136.102l4.863-13.903" stroke-width="1.2" stroke="#000" stroke-miterlimit="10" fill="none"/><path d="M166.22 143h9v14h-9zm0 0" fill="#fff"/><use xlink:href="#b" x="166.219" y="154.139" fill="#00f"/><path d="M179.95 122.2l-9.606-11.16" stroke-width="1.2" stroke="#000" stroke-miterlimit="10" fill="none"/><path d="M170.344 111.04l-9.606-11.165" stroke-width="1.2" stroke="#00f" stroke-miterlimit="10" fill="none"/><path d="M172.773 124.488l-7.683-8.93" stroke-width="1.2" stroke="#000" stroke-miterlimit="10" fill="none"/><path d="M165.09 115.56l-7.684-8.93" stroke-width="1.2" stroke="#00f" stroke-miterlimit="10" fill="none"/><path d="M179.95 122.2l14.468-2.735" stroke-width="1.2" stroke="#000" stroke-miterlimit="10" fill="none"/><path d="M194.418 119.465l14.47-2.738M160.738 99.875l-14.468 2.738" stroke-width="1.2" stroke="#00f" stroke-miterlimit="10" fill="none"/><path d="M146.27 102.613l-14.473 2.735" stroke-width="1.2" stroke="#000" stroke-miterlimit="10" fill="none"/><path d="M156.738 92.875h9v14h-9zm0 0" fill="#fff"/><use xlink:href="#b" x="156.738" y="104.014" fill="#00f"/><path d="M131.797 105.348l-9.727 27.8M137.367 110.418l-7.785 22.238" stroke-width="1.2" stroke="#000" stroke-miterlimit="10" fill="none"/><path d="M208.887 116.727l4.867-13.903" stroke-width="1.2" stroke="#00f" stroke-miterlimit="10" fill="none"/><path d="M213.754 102.824l4.863-13.898" stroke-width="1.2" stroke="#000" stroke-miterlimit="10" fill="none"/><path d="M199.887 109.727h18v14h-18zm0 0" fill="#fff"/><g fill="#00f"><use xlink:href="#b" x="199.887" y="120.865"/><use xlink:href="#c" x="208.863" y="120.865"/></g><path d="M218.617 88.926l28.942-5.473M218.617 88.926l-19.21-22.324" stroke-width="1.2" stroke="#000" stroke-miterlimit="10" fill="none"/></g></svg>
